X:1710
L:1/8
Q:3/8=100
M:6/8
K:Ador
 E | ABA ABd | (e/f/g)B A2 c | BAB GAB | BAB G2 G | cBc ded | efe a2 g | edB ABd | e2 A A2 :: g | 
 a2 A ABA | a2 A A2 f | g2 G GAG | BAB G2 B | cBc ded | efe a2 g | edB ABd | e2 A A2 :|

